!!!PDT:	1923
!!!LANG: Non-Tone
!!!LING_GROUP: Siouan
!!!REG: Dakotas
!!!COM: Anon.
!!!OTL: Song to the Raven
!!!ODT: <1918//
!!!MPN: Pau [Wounded Face]
!!!MLC: Fort Berthold Reservation, North Dakota, United States of America
!! Song was recorded during either the summer of 1912, 1915, or 1918.
!!!AGN: monody
!!!SOCIAL_FUNCTION: Mandan Black Mouth Society
!!!AMT: irregular
!!!RWG: Transcribed pitches, durations, and meters are only approximate.
!! Drum not recorded.
**kern
*ICvox
*Imale
*clefF4
*k[f#c#]
*M3/4
*MM80
=1-
4.f#
8e
16d
8.B
*M2/4
=2
16d
8.d
(12e
12d
12B)
=3
2B
=4
16B
8.B
16d
8.B
=5
16B
8.F#
4r
=6
16d
8.d
(20d
20d
20d
20d
20B)
=7
(24d
24d
24d)
! quarter changed to eighth
8d
8B
16B
16F#
=8
(12B
12B
12B)
4B
=9
(12F#
12F#
12E)
8D
8D
=10
16E
8.D
16E
8.D
=11
2BB
=12
2BB
==
*-
!!!CNT: Mandan
!!!TXO: Mandan
!!!OCY: United States
!!!OCL: Frances Densmore
!!!YOR: Frances Densmore, "Mandan and Hidatsa Music",
!!!YOR: Bulletin 80, page 49, No. 6
!!!PPR: Smithsonian Institution, Bureau of American Ethnology
!!!PPR: Government Printing Office
!!!PDT: 1923
!!!PPP: Washington, DC, United States of America
!!!YEC: Electronic Copyright 2000 David Huron
!!!YER: August 2000
!!!YEN: United States of America
!!!ENC: David Huron
!!!RDT: August 16, 2000
!!!EEV: Release 1.0
!!!AIN: tom, vox
